assets/Japanese service charge button/Flat/japanese_service_charge_button_flat.svg

<svg width="32" height="32" viewBox="0 0 32 32" fill="none" xmlns="http://www.w3.org/2000/svg">
<path d="M2 6C2 3.79086 3.79086 2 6 2H26C28.2091 2 30 3.79086 30 6V26C30 28.2091 28.2091 30 26 30H6C3.79086 30 2 28.2091 2 26V6Z" fill="#00A6ED"/>
<path d="M22 8C22 7.44772 21.5523 7 21 7C20.4477 7 20 7.44772 20 8V10.875C20 10.944 19.944 11 19.875 11H12.125C12.056 11 12 10.944 12 10.875V8C12 7.44772 11.5523 7 11 7C10.4477 7 10 7.44772 10 8V10.875C10 10.944 9.94404 11 9.875 11H7C6.44772 11 6 11.4477 6 12C6 12.5523 6.44772 13 7 13H9.875C9.94404 13 10 13.056 10 13.125V18C10 18.5523 10.4477 19 11 19C11.5523 19 12 18.5523 12 18V13.125C12 13.056 12.056 13 12.125 13H19.9706C19.9868 13 20 13.0132 20 13.0294V13.0294L20.0017 13.0587C20.2416 17.1374 19.3995 19.799 18.277 21.595C17.154 23.3918 15.6928 24.4169 14.5009 25.1333C14.2015 25.306 14 25.6295 14 26C14 26.5523 14.4477 27 15 27C15.1942 27 15.3754 26.9447 15.5289 26.8489C16.8329 26.0653 18.6058 24.8425 19.973 22.655C21.3305 20.483 22.2319 17.4521 22.0089 13.133C22.0052 13.0612 22.0621 13 22.1339 13H25C25.5523 13 26 12.5523 26 12C26 11.4477 25.5523 11 25 11H22.125C22.056 11 22 10.944 22 10.875V8Z" fill="white"/>
</svg>

<svg xmlns="http://www.w3.org/2000/svg" width="32" height="32" fill="none"><path fill="#00A6ED" d="M2 6a4 4 0 0 1 4-4h20a4 4 0 0 1 4 4v20a4 4 0 0 1-4 4H6a4 4 0 0 1-4-4V6Z"/><path fill="#fff" d="M22 8a1 1 0 1 0-2 0v2.875a.125.125 0 0 1-.125.125h-7.75a.125.125 0 0 1-.125-.125V8a1 1 0 1 0-2 0v2.875a.125.125 0 0 1-.125.125H7a1 1 0 1 0 0 2h2.875c.069 0 .125.056.125.125V18a1 1 0 1 0 2 0v-4.875c0-.069.056-.125.125-.125h7.846a.03.03 0 0 1 .029.03l.002.029c.24 4.078-.602 6.74-1.725 8.536-1.123 1.797-2.584 2.822-3.776 3.538a1 1 0 1 0 1.028 1.716c1.304-.784 3.077-2.006 4.444-4.194 1.358-2.172 2.259-5.203 2.036-9.522a.126.126 0 0 1 .125-.133H25a1 1 0 1 0 0-2h-2.875a.125.125 0 0 1-.125-.125V8Z"/></svg>
